data/styles/clear/style-clear/symbols/volcano-s.svg

<svg height="17" viewBox="0 0 17 17" width="17"><path d="m8.4999999 7.02483701c.37640263 0 1.1559081-.35229035 1.1559081-.35229035l2.8828347 4.64111074c.0379749.0667919.0538499.1417218.0538499.2164352 0 .3246528-.2153996.4329569-.4307992.4328704h-7.32358677c-.21539961.0000865-.43079922-.1082176-.43079922-.4328704 0-.0747134.01589649-.1496433.0538499-.2164352l2.93768018-4.64111074s.72514154.35229035 1.10106241.35229035zm.1826082-1.59931398c-.25998825.1267613-.47543474.35597709-.67151526.57447697-.03655329-.24672714.0210605-.52194291.11668001-.74671551.10699702-.2535226.28516401-.47542021.51368255-.60740877.44686992-.25822714.98693861-.14740902 1.4040333.12780675.1278155.08494313.2532102.17459081.3892562.24411351.1885762.09565904.391919.15211355.6013136.1395681.3444723-.02064771.6761147-.20386353.9639415-.39727251-.0205764.25299986-.1508125.505477-.2994464.69627235-.1740517.2234658-.404991.38864753-.6649793.46940885-.2779017.08598859-.5754116.07422723-.8508926-.01489772-.22295081-.07239769-.41903132-.19523854-.61486977-.32801119-.12781545-.08677268-.26604011-.16465901-.41297946-.20569308-.16340044-.04547724-.3217173-.02639771-.47422437.04835225z" fill="#262622" fill-rule="evenodd"/></svg>

<svg width="17" height="17" viewBox="0 0 17 17">
  <path fill="#262622" fill-rule="evenodd" d="M8.4999999,7.02483701 C8.87640253,7.02483701 9.655908,6.67254666 9.655908,6.67254666 L12.5387427,11.3136574 C12.5767176,11.3804493 12.5925926,11.4553792 12.5925926,11.5300926 C12.5925926,11.8547454 12.377193,11.9630495 12.1617934,11.962963 L4.83820663,11.962963 C4.62280702,11.9630495 4.40740741,11.8547454 4.40740741,11.5300926 C4.40740741,11.4553792 4.4233039,11.3804493 4.46125731,11.3136574 L7.39893749,6.67254666 C7.39893749,6.67254666 8.12407903,7.02483701 8.4999999,7.02483701 Z M8.6826081,5.42552303 C8.42261985,5.55228433 8.20717336,5.78150012 8.01109284,6 C7.97453955,5.75327286 8.03215334,5.47805709 8.12777285,5.25328449 C8.23476987,4.99976189 8.41293686,4.77786428 8.6414554,4.64587572 C9.08832532,4.38764858 9.62839401,4.4984667 10.0454887,4.77368247 C10.1733042,4.8586256 10.2986989,4.94827328 10.4347449,5.01779598 C10.6233211,5.11345502 10.8266639,5.16990953 11.0360585,5.15736408 C11.3805308,5.13671637 11.7121732,4.95350055 12,4.76009157 C11.9794236,5.01309143 11.8491875,5.26556857 11.7005536,5.45636392 C11.5265019,5.67982972 11.2955626,5.84501145 11.0355743,5.92577277 C10.7576726,6.01176136 10.4601627,6 10.1846817,5.91087505 C9.96173089,5.83847736 9.76565038,5.71563651 9.56981193,5.58286386 C9.44199648,5.49609118 9.30377182,5.41820485 9.15683247,5.37717078 C8.99343203,5.33169354 8.83511517,5.35077307 8.6826081,5.42552303 Z"/>
</svg>
